src/gui/emoticons/crylaugh.svg

<svg xmlns="http://www.w3.org/2000/svg" xmlns:xlink="http://www.w3.org/1999/xlink" width="16pt" height="16pt" version="1.1" viewBox="0 0 16 16"><defs><linearGradient id="linear0" x1="64.495" x2="64.495" y1="22.01" y2="105.44" gradientTransform="matrix(0.125,0,0,0.125,0,0)" gradientUnits="userSpaceOnUse"><stop offset=".5" style="stop-color:#fee133;stop-opacity:1"/><stop offset=".612" style="stop-color:#fede32;stop-opacity:1"/><stop offset=".708" style="stop-color:#fcd32f;stop-opacity:1"/><stop offset=".797" style="stop-color:#fac12b;stop-opacity:1"/><stop offset=".883" style="stop-color:#f7a924;stop-opacity:1"/><stop offset=".9" style="stop-color:#f6a323;stop-opacity:1"/></linearGradient><clipPath id="clip1"><path d="M 2 8 L 14 8 L 14 14 L 2 14 Z M 2 8"/></clipPath><clipPath id="clip2"><path d="M 8 8.824219 C 6.132812 8.824219 4.398438 8.667969 2.953125 8.402344 C 2.59375 8.335938 2.277344 8.648438 2.351562 9.007812 C 2.828125 11.359375 5.144531 13.292969 7.996094 13.292969 C 11.113281 13.292969 13.214844 11.296875 13.648438 9 C 13.71875 8.644531 13.402344 8.332031 13.046875 8.398438 C 11.601562 8.667969 9.863281 8.824219 8 8.824219 Z M 8 8.824219"/></clipPath><clipPath id="clip3"><path d="M 2 8 L 14 8 L 14 11 L 2 11 Z M 2 8"/></clipPath><clipPath id="clip4"><path d="M 8 8.824219 C 6.132812 8.824219 4.398438 8.667969 2.953125 8.402344 C 2.59375 8.335938 2.277344 8.648438 2.351562 9.007812 C 2.828125 11.359375 5.144531 13.292969 7.996094 13.292969 C 11.113281 13.292969 13.214844 11.296875 13.648438 9 C 13.71875 8.644531 13.402344 8.332031 13.046875 8.398438 C 11.601562 8.667969 9.863281 8.824219 8 8.824219 Z M 8 8.824219"/></clipPath><clipPath id="clip5"><path d="M 4 11 L 12 11 L 12 14 L 4 14 Z M 4 11"/></clipPath><clipPath id="clip6"><path d="M 8 8.824219 C 6.132812 8.824219 4.398438 8.667969 2.953125 8.402344 C 2.59375 8.335938 2.277344 8.648438 2.351562 9.007812 C 2.828125 11.359375 5.144531 13.292969 7.996094 13.292969 C 11.113281 13.292969 13.214844 11.296875 13.648438 9 C 13.71875 8.644531 13.402344 8.332031 13.046875 8.398438 C 11.601562 8.667969 9.863281 8.824219 8 8.824219 Z M 8 8.824219"/></clipPath><clipPath id="clip7"><path d="M 2 8 L 14 8 L 14 14 L 2 14 Z M 2 8"/></clipPath><clipPath id="clip8"><path d="M 8 8.824219 C 6.132812 8.824219 4.398438 8.667969 2.953125 8.402344 C 2.59375 8.335938 2.277344 8.648438 2.351562 9.007812 C 2.828125 11.359375 5.144531 13.292969 7.996094 13.292969 C 11.113281 13.292969 13.214844 11.296875 13.648438 9 C 13.71875 8.644531 13.402344 8.332031 13.046875 8.398438 C 11.601562 8.667969 9.863281 8.824219 8 8.824219 Z M 8 8.824219"/></clipPath><clipPath id="clip9"><path d="M 1.675781 7.886719 L 1.675781 9.359375 C 3.621094 10.3125 5.757812 10.839844 8 10.839844 C 10.242188 10.839844 12.378906 10.3125 14.324219 9.359375 L 14.324219 7.886719 Z M 8 11.664062 C 6.601562 11.664062 5.382812 12.425781 4.730469 13.554688 C 5.574219 14.015625 6.726562 14.300781 8 14.300781 C 9.273438 14.300781 10.421875 14.015625 11.269531 13.554688 C 10.617188 12.425781 9.398438 11.664062 8 11.664062 Z M 8 11.664062"/></clipPath></defs><g id="surface1"><path style="stroke:none;fill-rule:nonzero;fill:url(#linear0)" d="M 8.0625 14.625 C 4.75 14.625 1.1875 12.550781 1.1875 8 C 1.1875 3.449219 4.75 1.375 8.0625 1.375 C 9.898438 1.375 11.597656 1.984375 12.847656 3.085938 C 14.214844 4.292969 14.9375 5.992188 14.9375 8 C 14.9375 10 14.214844 11.695312 12.847656 12.90625 C 11.59375 14.015625 9.894531 14.625 8.0625 14.625 Z M 8.0625 14.625"/><path style="stroke:none;fill-rule:nonzero;fill:#eb8f00;fill-opacity:1" d="M 8.0625 1.625 C 9.835938 1.625 11.476562 2.210938 12.679688 3.273438 C 13.992188 4.429688 14.6875 6.066406 14.6875 8 C 14.6875 9.925781 13.992188 11.554688 12.679688 12.71875 C 11.472656 13.785156 9.832031 14.375 8.0625 14.375 C 6.28125 14.375 4.640625 13.792969 3.441406 12.738281 C 2.128906 11.585938 1.4375 9.949219 1.4375 8 C 1.4375 6.042969 2.132812 4.402344 3.441406 3.25 C 4.636719 2.203125 6.277344 1.625 8.0625 1.625 M 8.0625 1.125 C 4.363281 1.125 0.9375 3.5 0.9375 8 C 0.9375 12.476562 4.363281 14.875 8.0625 14.875 C 11.761719 14.875 15.1875 12.414062 15.1875 8 C 15.1875 3.5625 11.761719 1.125 8.0625 1.125 Z M 8.0625 1.125"/><g clip-path="url(#clip1)" clip-rule="nonzero"><g clip-path="url(#clip2)" clip-rule="nonzero"><path style="stroke:none;fill-rule:nonzero;fill:#242424;fill-opacity:1" d="M 8 8.824219 C 6.132812 8.824219 4.398438 8.667969 2.953125 8.402344 C 2.59375 8.335938 2.277344 8.648438 2.351562 9.007812 C 2.828125 11.359375 5.144531 13.292969 7.996094 13.292969 C 11.113281 13.292969 13.214844 11.296875 13.648438 9 C 13.71875 8.644531 13.402344 8.332031 13.046875 8.398438 C 11.601562 8.667969 9.863281 8.824219 8 8.824219 Z M 8 8.824219"/></g></g><g clip-path="url(#clip3)" clip-rule="nonzero"><g clip-path="url(#clip4)" clip-rule="nonzero"><path style="stroke:none;fill-rule:nonzero;fill:#fff;fill-opacity:1" d="M 14.324219 8.6875 L 14.324219 6.921875 L 1.675781 6.921875 L 1.675781 8.6875 C 3.621094 9.832031 5.757812 10.464844 8 10.464844 C 10.242188 10.464844 12.378906 9.832031 14.324219 8.6875 Z M 14.324219 8.6875"/></g></g><g clip-path="url(#clip5)" clip-rule="nonzero"><g clip-path="url(#clip6)" clip-rule="nonzero"><path style="stroke:none;fill-rule:nonzero;fill:#ed7770;fill-opacity:1" d="M 8 11.664062 C 6.601562 11.664062 5.382812 12.425781 4.730469 13.554688 C 5.574219 14.015625 6.726562 14.300781 8 14.300781 C 9.273438 14.300781 10.421875 14.015625 11.269531 13.554688 C 10.617188 12.425781 9.398438 11.664062 8 11.664062 Z M 8 11.664062"/></g></g><g clip-path="url(#clip7)" clip-rule="nonzero"><g clip-path="url(#clip8)" clip-rule="nonzero"><g clip-path="url(#clip9)" clip-rule="nonzero"><path style="stroke:none;fill-rule:nonzero;fill:#eb8f00;fill-opacity:1" d="M 13.140625 8.890625 C 13.152344 8.890625 13.160156 8.898438 13.160156 8.90625 C 12.960938 9.957031 12.375 10.917969 11.515625 11.617188 C 10.566406 12.386719 9.351562 12.789062 7.996094 12.789062 C 5.507812 12.789062 3.289062 11.121094 2.835938 8.902344 C 2.839844 8.898438 2.847656 8.890625 2.859375 8.890625 C 4.386719 9.171875 6.164062 9.324219 7.996094 9.324219 C 9.828125 9.324219 11.609375 9.171875 13.136719 8.890625 C 13.140625 8.890625 13.140625 8.890625 13.140625 8.890625 M 13.140625 8.390625 C 13.109375 8.390625 13.078125 8.394531 13.046875 8.398438 C 11.601562 8.667969 9.863281 8.824219 8 8.824219 C 6.132812 8.824219 4.398438 8.667969 2.953125 8.402344 C 2.921875 8.394531 2.890625 8.390625 2.859375 8.390625 C 2.542969 8.390625 2.285156 8.683594 2.351562 9.007812 C 2.832031 11.359375 5.148438 13.292969 7.996094 13.292969 C 11.117188 13.292969 13.214844 11.296875 13.652344 9 C 13.710938 8.675781 13.457031 8.390625 13.140625 8.390625 Z M 13.140625 8.390625"/></g></g></g><path style="fill-rule:nonzero;fill:#eb8f00;fill-opacity:1;stroke-width:1;stroke-linecap:butt;stroke-linejoin:miter;stroke:#eb8f00;stroke-opacity:1;stroke-miterlimit:10" d="M 45.5625 34.71875 C 45.59375 34.6875 45.625 34.6875 45.65625 34.65625 C 47.625 33.875 46.8125 30.9375 44.75 31.3125 C 43.125 31.625 41.53125 32.0625 39.9375 32.65625 C 35.59375 34.3125 31.9375 36.875 29.0625 40 C 27.625 41.5625 29.6875 43.84375 31.40625 42.59375 C 35.625 39.46875 40.375 36.8125 45.5625 34.71875 Z M 45.5625 34.71875" transform="matrix(0.125,0,0,0.125,0,0)"/><path style="fill-rule:nonzero;fill:#eb8f00;fill-opacity:1;stroke-width:1;stroke-linecap:butt;stroke-linejoin:miter;stroke:#eb8f00;stroke-opacity:1;stroke-miterlimit:10" d="M 82.4375 34.71875 C 82.40625 34.6875 82.375 34.6875 82.34375 34.65625 C 80.375 33.875 81.1875 30.9375 83.25 31.3125 C 84.875 31.625 86.46875 32.0625 88.0625 32.65625 C 92.40625 34.3125 96.0625 36.875 98.9375 40 C 100.375 41.5625 98.3125 43.84375 96.59375 42.59375 C 92.375 39.46875 87.625 36.8125 82.4375 34.71875 Z M 82.4375 34.71875" transform="matrix(0.125,0,0,0.125,0,0)"/><path style="stroke:none;fill-rule:nonzero;fill:#5f7aff;fill-opacity:1" d="M 1.550781 11.023438 C 1.167969 11.023438 0.816406 10.886719 0.574219 10.640625 C 0.3125 10.382812 0.179688 10.015625 0.191406 9.609375 C 0.203125 9.226562 0.355469 8.851562 0.59375 8.613281 C 0.917969 8.292969 1.417969 8.070312 2.109375 7.761719 C 2.210938 7.71875 2.316406 7.671875 2.421875 7.625 C 3.039062 7.347656 3.78125 7.117188 4.203125 6.992188 C 4.066406 7.390625 3.820312 8.089844 3.558594 8.773438 C 3.132812 9.890625 2.917969 10.300781 2.601562 10.617188 C 2.347656 10.871094 1.957031 11.023438 1.550781 11.023438 Z M 1.550781 11.023438"/><path style="stroke:none;fill-rule:nonzero;fill:#4864ed;fill-opacity:1" d="M 3.90625 7.277344 C 3.765625 7.671875 3.578125 8.195312 3.382812 8.707031 C 2.96875 9.792969 2.761719 10.191406 2.46875 10.484375 C 2.25 10.703125 1.90625 10.835938 1.550781 10.835938 C 1.214844 10.835938 0.914062 10.71875 0.703125 10.507812 C 0.484375 10.289062 0.367188 9.96875 0.378906 9.613281 C 0.390625 9.277344 0.519531 8.953125 0.726562 8.746094 C 1.023438 8.449219 1.511719 8.234375 2.1875 7.933594 C 2.289062 7.890625 2.390625 7.84375 2.5 7.792969 C 2.960938 7.585938 3.492188 7.40625 3.90625 7.277344 M 4.496094 6.75 Z M 4.496094 6.71875 C 4.496094 6.71875 3.289062 7.027344 2.34375 7.453125 C 1.484375 7.839844 0.859375 8.085938 0.460938 8.480469 C -0.101562 9.042969 -0.1875 10.144531 0.441406 10.773438 C 0.738281 11.074219 1.148438 11.210938 1.550781 11.210938 C 1.996094 11.210938 2.4375 11.046875 2.734375 10.75 C 3.089844 10.394531 3.3125 9.941406 3.734375 8.839844 C 4.136719 7.789062 4.496094 6.71875 4.496094 6.71875 Z M 4.496094 6.71875"/><path style="stroke:none;fill-rule:nonzero;fill:#5f7aff;fill-opacity:1" d="M 14.449219 11.023438 C 14.042969 11.023438 13.652344 10.871094 13.398438 10.617188 C 13.082031 10.300781 12.867188 9.890625 12.441406 8.773438 C 12.179688 8.089844 11.933594 7.390625 11.796875 6.992188 C 12.21875 7.117188 12.960938 7.347656 13.578125 7.625 C 13.6875 7.671875 13.789062 7.71875 13.890625 7.761719 C 14.582031 8.070312 15.085938 8.292969 15.40625 8.613281 C 15.644531 8.851562 15.796875 9.226562 15.808594 9.609375 C 15.820312 10.015625 15.6875 10.382812 15.429688 10.640625 C 15.179688 10.886719 14.832031 11.023438 14.449219 11.023438 Z M 14.449219 11.023438"/><path style="stroke:none;fill-rule:nonzero;fill:#4864ed;fill-opacity:1" d="M 12.09375 7.277344 C 12.507812 7.40625 13.039062 7.585938 13.5 7.792969 C 13.609375 7.839844 13.710938 7.886719 13.8125 7.933594 C 14.488281 8.234375 14.976562 8.449219 15.273438 8.746094 C 15.480469 8.953125 15.609375 9.277344 15.621094 9.613281 C 15.632812 9.96875 15.515625 10.289062 15.296875 10.507812 C 15.085938 10.71875 14.785156 10.835938 14.449219 10.835938 C 14.09375 10.835938 13.75 10.703125 13.53125 10.484375 C 13.238281 10.191406 13.03125 9.792969 12.617188 8.707031 C 12.417969 8.195312 12.234375 7.671875 12.09375 7.277344 M 11.503906 6.71875 C 11.503906 6.71875 11.863281 7.789062 12.265625 8.839844 C 12.6875 9.941406 12.914062 10.394531 13.265625 10.75 C 13.5625 11.046875 14.003906 11.210938 14.449219 11.210938 C 14.855469 11.210938 15.261719 11.074219 15.5625 10.773438 C 16.1875 10.144531 16.101562 9.042969 15.539062 8.480469 C 15.144531 8.085938 14.515625 7.839844 13.65625 7.453125 C 12.710938 7.027344 11.503906 6.71875 11.503906 6.71875 Z M 11.503906 6.71875"/><path style="stroke:none;fill-rule:nonzero;fill:#242424;fill-opacity:1" d="M 6.019531 7.222656 C 6.019531 7.222656 6.011719 7.210938 5.996094 7.195312 C 5.988281 7.183594 5.980469 7.171875 5.96875 7.160156 C 5.957031 7.144531 5.949219 7.132812 5.9375 7.125 L 5.859375 7.046875 C 5.828125 7.015625 5.792969 6.980469 5.753906 6.949219 C 5.671875 6.878906 5.578125 6.816406 5.476562 6.773438 C 5.375 6.730469 5.273438 6.707031 5.171875 6.707031 C 5.214844 6.707031 5.183594 6.707031 5.191406 6.707031 L 5.15625 6.707031 L 5.121094 6.710938 C 5.085938 6.710938 5.09375 6.710938 5.082031 6.714844 C 5.074219 6.710938 5.039062 6.722656 5.015625 6.726562 C 4.964844 6.738281 4.914062 6.753906 4.863281 6.773438 C 4.765625 6.816406 4.667969 6.878906 4.589844 6.949219 C 4.511719 7.015625 4.445312 7.082031 4.398438 7.132812 C 4.355469 7.183594 4.328125 7.210938 4.328125 7.210938 L 4.292969 7.253906 C 4.140625 7.425781 3.875 7.441406 3.703125 7.289062 C 3.574219 7.171875 3.535156 6.992188 3.589844 6.839844 C 3.589844 6.839844 3.59375 6.824219 3.601562 6.796875 C 3.613281 6.773438 3.625 6.734375 3.644531 6.683594 C 3.6875 6.585938 3.757812 6.453125 3.875 6.300781 C 3.988281 6.148438 4.15625 5.984375 4.378906 5.859375 C 4.488281 5.796875 4.613281 5.738281 4.75 5.703125 C 4.820312 5.683594 4.878906 5.667969 4.964844 5.660156 C 5.003906 5.652344 5.058594 5.648438 5.074219 5.648438 L 5.171875 5.640625 C 5.3125 5.644531 5.453125 5.664062 5.589844 5.703125 C 5.726562 5.734375 5.851562 5.796875 5.960938 5.859375 C 6.183594 5.984375 6.351562 6.148438 6.464844 6.300781 C 6.523438 6.375 6.570312 6.449219 6.609375 6.511719 C 6.644531 6.574219 6.671875 6.640625 6.699219 6.691406 C 6.710938 6.71875 6.71875 6.738281 6.722656 6.753906 C 6.726562 6.769531 6.734375 6.785156 6.734375 6.796875 L 6.746094 6.828125 C 6.820312 7.050781 6.699219 7.289062 6.476562 7.359375 C 6.304688 7.414062 6.125 7.355469 6.019531 7.222656 Z M 6.019531 7.222656"/><path style="stroke:none;fill-rule:nonzero;fill:#242424;fill-opacity:1" d="M 11.683594 7.222656 C 11.683594 7.222656 11.675781 7.210938 11.664062 7.195312 C 11.65625 7.183594 11.644531 7.171875 11.636719 7.160156 C 11.625 7.144531 11.613281 7.132812 11.605469 7.125 L 11.527344 7.046875 C 11.496094 7.015625 11.457031 6.980469 11.417969 6.949219 C 11.339844 6.878906 11.242188 6.816406 11.144531 6.773438 C 11.042969 6.730469 10.941406 6.707031 10.835938 6.707031 C 10.882812 6.707031 10.847656 6.707031 10.859375 6.707031 L 10.824219 6.707031 L 10.785156 6.710938 C 10.753906 6.710938 10.761719 6.710938 10.75 6.714844 C 10.742188 6.710938 10.707031 6.722656 10.683594 6.726562 C 10.632812 6.738281 10.578125 6.753906 10.53125 6.773438 C 10.429688 6.816406 10.335938 6.878906 10.253906 6.949219 C 10.175781 7.015625 10.109375 7.082031 10.066406 7.132812 C 10.019531 7.183594 9.992188 7.210938 9.992188 7.210938 L 9.957031 7.253906 C 9.804688 7.425781 9.542969 7.441406 9.371094 7.289062 C 9.238281 7.171875 9.199219 6.992188 9.253906 6.839844 C 9.253906 6.839844 9.257812 6.824219 9.265625 6.796875 C 9.277344 6.773438 9.289062 6.734375 9.3125 6.683594 C 9.351562 6.585938 9.421875 6.453125 9.539062 6.300781 C 9.652344 6.148438 9.820312 5.984375 10.042969 5.859375 C 10.15625 5.796875 10.277344 5.738281 10.414062 5.703125 C 10.484375 5.683594 10.542969 5.667969 10.632812 5.660156 C 10.667969 5.652344 10.722656 5.648438 10.738281 5.648438 L 10.835938 5.640625 C 10.976562 5.644531 11.121094 5.664062 11.257812 5.703125 C 11.390625 5.734375 11.515625 5.796875 11.628906 5.859375 C 11.851562 5.984375 12.015625 6.148438 12.132812 6.300781 C 12.191406 6.375 12.234375 6.449219 12.273438 6.511719 C 12.308594 6.574219 12.339844 6.640625 12.363281 6.691406 C 12.375 6.71875 12.382812 6.738281 12.386719 6.753906 C 12.390625 6.769531 12.398438 6.785156 12.402344 6.796875 L 12.414062 6.828125 C 12.484375 7.050781 12.363281 7.289062 12.140625 7.359375 C 11.972656 7.414062 11.792969 7.355469 11.683594 7.222656 Z M 11.683594 7.222656"/></g></svg>

<svg xmlns="http://www.w3.org/2000/svg" width="16pt" height="16pt" viewBox="0 0 16 16"><defs><clipPath id="b"><path d="M2 8h12v6H2Zm0 0"/></clipPath><clipPath id="c"><path d="M8 8.824c-1.867 0-3.602-.156-5.047-.422a.514.514 0 0 0-.601.606c.476 2.351 2.793 4.285 5.644 4.285 3.117 0 5.219-1.996 5.652-4.293a.515.515 0 0 0-.601-.602c-1.445.27-3.184.426-5.047.426m0 0"/></clipPath><clipPath id="d"><path d="M2 8h12v3H2Zm0 0"/></clipPath><clipPath id="e"><path d="M8 8.824c-1.867 0-3.602-.156-5.047-.422a.514.514 0 0 0-.601.606c.476 2.351 2.793 4.285 5.644 4.285 3.117 0 5.219-1.996 5.652-4.293a.515.515 0 0 0-.601-.602c-1.445.27-3.184.426-5.047.426m0 0"/></clipPath><clipPath id="f"><path d="M4 11h8v3H4Zm0 0"/></clipPath><clipPath id="g"><path d="M8 8.824c-1.867 0-3.602-.156-5.047-.422a.514.514 0 0 0-.601.606c.476 2.351 2.793 4.285 5.644 4.285 3.117 0 5.219-1.996 5.652-4.293a.515.515 0 0 0-.601-.602c-1.445.27-3.184.426-5.047.426m0 0"/></clipPath><clipPath id="h"><path d="M2 8h12v6H2Zm0 0"/></clipPath><clipPath id="i"><path d="M8 8.824c-1.867 0-3.602-.156-5.047-.422a.514.514 0 0 0-.601.606c.476 2.351 2.793 4.285 5.644 4.285 3.117 0 5.219-1.996 5.652-4.293a.515.515 0 0 0-.601-.602c-1.445.27-3.184.426-5.047.426m0 0"/></clipPath><clipPath id="j"><path d="M1.676 7.887v1.472A14.3 14.3 0 0 0 8 10.84c2.242 0 4.379-.527 6.324-1.48V7.887ZM8 11.664a3.77 3.77 0 0 0-3.27 1.89c.844.462 1.997.747 3.27.747s2.422-.285 3.27-.746A3.77 3.77 0 0 0 8 11.665m0 0"/></clipPath><linearGradient id="a" x1="64.495" x2="64.495" y1="22.01" y2="105.44" gradientTransform="scale(.125)" gradientUnits="userSpaceOnUse"><stop offset=".5" style="stop-color:#fee133;stop-opacity:1"/><stop offset=".612" style="stop-color:#fede32;stop-opacity:1"/><stop offset=".708" style="stop-color:#fcd32f;stop-opacity:1"/><stop offset=".797" style="stop-color:#fac12b;stop-opacity:1"/><stop offset=".883" style="stop-color:#f7a924;stop-opacity:1"/><stop offset=".9" style="stop-color:#f6a323;stop-opacity:1"/></linearGradient></defs><path d="M8.063 14.625c-3.313 0-6.876-2.074-6.876-6.625 0-4.55 3.563-6.625 6.876-6.625 1.835 0 3.535.61 4.785 1.71 1.367 1.208 2.09 2.907 2.09 4.915 0 2-.723 3.695-2.09 4.906-1.254 1.11-2.953 1.719-4.786 1.719m0 0" style="stroke:none;fill-rule:nonzero;fill:url(#a)"/><path d="M8.063 1.625c1.773 0 3.414.586 4.617 1.648C13.992 4.43 14.688 6.066 14.688 8c0 1.926-.696 3.555-2.008 4.719-1.207 1.066-2.848 1.656-4.617 1.656-1.782 0-3.422-.582-4.622-1.637C2.13 11.586 1.438 9.95 1.438 8c0-1.957.695-3.598 2.003-4.75 1.196-1.047 2.836-1.625 4.621-1.625m0-.5C4.364 1.125.939 3.5.939 8c0 4.477 3.425 6.875 7.125 6.875 3.699 0 7.124-2.46 7.124-6.875 0-4.437-3.425-6.875-7.124-6.875m0 0" style="stroke:none;fill-rule:nonzero;fill:#eb8f00;fill-opacity:1"/><g clip-path="url(#b)"><g clip-path="url(#c)"><path d="M8 8.824c-1.867 0-3.602-.156-5.047-.422a.514.514 0 0 0-.601.606c.476 2.351 2.793 4.285 5.644 4.285 3.117 0 5.219-1.996 5.652-4.293a.515.515 0 0 0-.601-.602c-1.445.27-3.184.426-5.047.426m0 0" style="stroke:none;fill-rule:nonzero;fill:#242424;fill-opacity:1"/></g></g><g clip-path="url(#d)"><g clip-path="url(#e)"><path d="M14.324 8.688V6.922H1.676v1.766C3.62 9.832 5.758 10.465 8 10.465s4.379-.633 6.324-1.777m0 0" style="stroke:none;fill-rule:nonzero;fill:#fff;fill-opacity:1"/></g></g><g clip-path="url(#f)"><g clip-path="url(#g)"><path d="M8 11.664a3.77 3.77 0 0 0-3.27 1.89c.844.462 1.997.747 3.27.747s2.422-.285 3.27-.746A3.77 3.77 0 0 0 8 11.665m0 0" style="stroke:none;fill-rule:nonzero;fill:#ed7770;fill-opacity:1"/></g></g><g clip-path="url(#h)"><g clip-path="url(#i)"><g clip-path="url(#j)"><path d="M13.14 8.89q.019.002.02.016a4.63 4.63 0 0 1-1.644 2.711c-.95.77-2.164 1.172-3.52 1.172-2.488 0-4.707-1.668-5.16-3.887.004-.004.012-.011.023-.011 1.528.28 3.305.433 5.137.433s3.613-.152 5.14-.433zm0-.5a1 1 0 0 0-.094.007c-1.445.27-3.184.426-5.047.426-1.867 0-3.602-.156-5.047-.422a.4.4 0 0 0-.094-.011.52.52 0 0 0-.507.617c.48 2.351 2.796 4.285 5.644 4.285 3.121 0 5.219-1.996 5.656-4.293a.52.52 0 0 0-.511-.61m0 0" style="stroke:none;fill-rule:nonzero;fill:#eb8f00;fill-opacity:1"/></g></g></g><path d="M45.563 34.719c.03-.032.062-.032.093-.063 1.969-.781 1.157-3.718-.906-3.343-1.625.312-3.219.75-4.812 1.343-4.344 1.657-8 4.219-10.876 7.344-1.437 1.563.625 3.844 2.344 2.594 4.219-3.125 8.969-5.782 14.157-7.875ZM82.438 34.719c-.032-.032-.063-.032-.094-.063-1.969-.781-1.156-3.718.906-3.343 1.625.312 3.219.75 4.813 1.343 4.343 1.657 8 4.219 10.874 7.344 1.438 1.563-.624 3.844-2.343 2.594-4.219-3.125-8.969-5.782-14.156-7.875Zm0 0" style="fill-rule:nonzero;fill:#eb8f00;fill-opacity:1;stroke-width:1;stroke-linecap:butt;stroke-linejoin:miter;stroke:#eb8f00;stroke-opacity:1;stroke-miterlimit:10" transform="scale(.125)"/><path d="M1.55 11.023a1.36 1.36 0 0 1-.976-.382c-.261-.258-.394-.625-.383-1.032.012-.382.164-.757.403-.996.324-.32.824-.543 1.515-.851q.153-.065.313-.137c.617-.277 1.36-.508 1.781-.633a57 57 0 0 1-.644 1.781c-.426 1.118-.641 1.528-.957 1.844-.254.254-.645.406-1.051.406m0 0" style="stroke:none;fill-rule:nonzero;fill:#5f7aff;fill-opacity:1"/><path d="M3.906 7.277c-.14.395-.328.918-.523 1.43-.414 1.086-.621 1.484-.914 1.777-.219.22-.563.352-.918.352-.336 0-.637-.117-.848-.328-.219-.219-.336-.54-.324-.895.012-.336.14-.66.348-.867.296-.297.785-.512 1.46-.812q.151-.064.313-.141c.46-.207.992-.387 1.406-.516m.59-.558s-1.207.308-2.152.734C1.484 7.84.859 8.086.46 8.48c-.563.563-.649 1.665-.02 2.293.297.301.707.438 1.11.438.445 0 .887-.164 1.183-.461.356-.355.579-.809 1-1.91.403-1.05.762-2.121.762-2.121m0 0" style="stroke:none;fill-rule:nonzero;fill:#4864ed;fill-opacity:1"/><path d="M14.45 11.023c-.407 0-.798-.152-1.052-.406-.316-.316-.53-.726-.957-1.844a57 57 0 0 1-.644-1.78c.422.124 1.164.355 1.781.632.11.047.211.094.313.137.691.308 1.195.531 1.515.851.239.239.39.614.403.996.011.407-.121.774-.38 1.032-.25.246-.597.382-.98.382m0 0" style="stroke:none;fill-rule:nonzero;fill:#5f7aff;fill-opacity:1"/><path d="M12.094 7.277a13 13 0 0 1 1.719.657c.675.3 1.164.515 1.46.812.207.207.336.531.348.867.012.356-.105.676-.324.895-.211.21-.512.328-.848.328-.355 0-.699-.133-.918-.352-.293-.293-.5-.691-.914-1.777-.199-.512-.383-1.035-.523-1.43m-.59-.558s.36 1.07.762 2.12c.422 1.102.648 1.556 1 1.911.297.297.738.46 1.183.46.406 0 .813-.136 1.114-.437.624-.628.539-1.73-.024-2.293-.394-.394-1.023-.64-1.883-1.027-.945-.426-2.152-.734-2.152-.734m0 0" style="stroke:none;fill-rule:nonzero;fill:#4864ed;fill-opacity:1"/><path d="M6.02 7.223q0-.002-.024-.028-.011-.017-.027-.035-.016-.023-.032-.035l-.078-.078a1.3 1.3 0 0 0-.382-.274.8.8 0 0 0-.305-.066h.02-.036l-.035.004c-.035 0-.027 0-.039.004-.008-.004-.043.008-.066.012q-.077.017-.153.046a1 1 0 0 0-.273.176 2 2 0 0 0-.262.262l-.035.043a.42.42 0 0 1-.59.035.42.42 0 0 1-.113-.45l.012-.042q.015-.037.043-.113a1.9 1.9 0 0 1 .23-.383c.113-.153.281-.317.504-.442a1.5 1.5 0 0 1 .586-.199 1 1 0 0 1 .11-.012l.097-.007q.211.005.418.062c.137.031.262.094.37.156.224.125.392.29.505.442.058.074.105.148.144.21.036.063.063.13.09.18q.018.04.024.063c.004.016.011.031.011.043l.012.031a.417.417 0 0 1-.27.531.42.42 0 0 1-.456-.136M11.684 7.223l-.02-.028c-.008-.011-.02-.023-.027-.035l-.032-.035-.078-.078a1 1 0 0 0-.109-.098 1 1 0 0 0-.273-.176.8.8 0 0 0-.31-.066h.024-.035l-.039.004c-.031 0-.023 0-.035.004-.008-.004-.043.008-.066.012a1 1 0 0 0-.153.046 1 1 0 0 0-.277.176 2 2 0 0 0-.188.184c-.046.05-.074.078-.074.078l-.035.043a.415.415 0 0 1-.586.035.41.41 0 0 1-.117-.45l.012-.042c.011-.024.023-.063.046-.113.04-.098.11-.23.227-.383.113-.153.281-.317.504-.442a1.6 1.6 0 0 1 .695-.21l.098-.008c.14.004.285.023.422.062.133.031.258.094.37.156.224.125.388.29.505.442.058.074.101.148.14.21.036.063.067.13.09.18q.018.04.024.063.008.024.015.043l.012.031a.422.422 0 0 1-.73.395m0 0" style="stroke:none;fill-rule:nonzero;fill:#242424;fill-opacity:1"/></svg>
